Suru++-Ubuntu/apps/scalable/xnsketch.svg

<svg width="256" height="256" version="1.1" viewBox="0 0 67.73 67.73" xmlns="http://www.w3.org/2000/svg" xmlns:xlink="http://www.w3.org/1999/xlink">
 <defs>
  <filter id="filter1132" x="-.02" y="-.03" width="1.046" height="1.05" style="color-interpolation-filters:sRGB">
   <feGaussianBlur stdDeviation="2.32"/>
  </filter>
  <filter id="filter4569" x="-.01" y="-.01" width="1.023" height="1.025" style="color-interpolation-filters:sRGB">
   <feGaussianBlur stdDeviation="1.16"/>
  </filter>
  <linearGradient id="linearGradient1108-7" x1="296" x2="296" y1="-212" y2="236" gradientUnits="userSpaceOnUse">
   <stop style="stop-color:#ffffff" offset="0"/>
   <stop style="stop-color:#ffffff;stop-opacity:.09803922" offset=".125"/>
   <stop style="stop-color:#000000;stop-opacity:.09803922" offset=".925"/>
   <stop style="stop-color:#000000;stop-opacity:.49803922" offset="1"/>
  </linearGradient>
  <clipPath id="clipPath1082-3-93">
   <path d="M 361.9375,-212 C 507.2348,-212 528,-191.28677 528,-46.125 V 70.125 C 528,215.28618 507.2348,236 361.9375,236 H 214.0625 C 68.7652,236 48,215.28618 48,70.125 V -46.125 C 48,-191.28677 68.7652,-212 214.0625,-212 Z" style="fill:#8c59d9"/>
  </clipPath>
 </defs>
 <g transform="translate(0,-229.26666)">
  <path d="m43.837425 232.42763c19.593907 0 22.394175 2.79326 22.394175 22.36889v15.67677c0 19.57555-2.800268 22.36888-22.394175 22.36888h-19.94152c-19.593906 0-22.394174-2.79333-22.394174-22.36888v-15.67677c0-19.57563 2.8002681-22.36889 22.394174-22.36889z" style="fill:none;opacity:.115;stroke-linecap:round;stroke-linejoin:round;stroke-width:1.0788312;stroke:#000000"/>
  <path transform="matrix(.26970778 0 0 .26970778 -7.1289177 220.56049)" d="m188.96876 43.999995c72.64865 0 83.03125 10.356615 83.03125 82.937505v58.125c0 72.58059-10.3826 82.9375-83.03125 82.9375h-73.9375c-72.648654 0-83.031254-10.35691-83.031254-82.9375v-58.125c0-72.58089 10.3826-82.937505 83.031254-82.937505z" style="filter:url(#filter4569);opacity:.1"/>
  <path transform="matrix(.26970778 0 0 .26970778 -7.1289177 220.56049)" d="m188.96876 45.999995c72.64865 0 83.03125 10.356615 83.03125 82.937505v58.125c0 72.58059-10.3826 82.9375-83.03125 82.9375h-73.9375c-72.648654 0-83.031254-10.35691-83.031254-82.9375v-58.125c0-72.58089 10.3826-82.937505 83.031254-82.937505z" style="filter:url(#filter1132);opacity:.2"/>
  <path d="m0.9525 262.56205v7.96544c0 19.89285 2.846163 22.73147 22.761203 22.73147h20.268349c19.91504 0 22.761202-2.83862 22.761202-22.73147v-7.96544z" style="fill:#ffffff;opacity:.25"/>
  <path d="m34.339496 293.25889h9.642769c2.489379 0 4.711922-0.0442 6.695678-0.16069 0.991878-0.0582 1.924134-0.13436 2.800022-0.23212 0.87589-0.0978 1.695452-0.21706 2.462296-0.36129 0.766845-0.14424 1.480835-0.31385 2.145581-0.51149 0.664745-0.19765 1.280283-0.42364 1.849874-0.68163 0.569591-0.25801 1.093269-0.54801 1.574648-0.87331 0.481383-0.3253 0.920325-0.68593 1.32044-1.08546 0.400114-0.39954 0.76144-0.83793 1.087233-1.31864 0.325794-0.48071 0.616096-1.00344 0.874514-1.57227s0.484817-1.18356 0.682806-1.84745c0.197987-0.66388 0.367602-1.3772 0.512101-2.14309 0.144501-0.7659 0.263929-1.58441 0.361887-2.45924 0.09796-0.87483 0.174317-1.80566 0.232678-2.79637 0.116723-1.98143 0.161248-4.20159 0.161248-6.68819v-15.9312c0-2.48661-0.04453-4.70675-0.161248-6.68819-0.05836-0.99071-0.13472-1.92154-0.232678-2.79637-0.09796-0.87484-0.217386-1.69334-0.361887-2.45924-0.144499-0.76589-0.314114-1.4792-0.512101-2.14309-0.197989-0.66389-0.424388-1.27862-0.682806-1.84745-0.258418-0.56882-0.54872-1.09156-0.874514-1.57227-0.325793-0.48071-0.687119-0.9191-1.087233-1.31863-0.400115-0.39954-0.839057-0.76017-1.32044-1.08547-0.481379-0.3253-1.005057-0.6153-1.574648-0.87331-0.569591-0.25799-1.185129-0.48398-1.849874-0.68163-0.664746-0.19764-1.378736-0.36725-2.145581-0.51149-0.766844-0.14423-1.586406-0.26353-2.462296-0.36129-0.875888-0.0978-1.808144-0.17387-2.800022-0.23211-1.983756-0.11647-4.206299-0.1607-6.695678-0.1607h-9.642769z" style="fill:#ffffff;opacity:.25"/>
  <path transform="matrix(.26458333 0 0 .26458333 0 229.26666)" d="m223.24609 233.69336c0.56572-0.23065 1.22059-0.40435 1.76368-0.65039 2.11807-0.95957 4.06541-2.03819 5.85546-3.24805 1.79006-1.20985 3.4223-2.55115 4.91016-4.03711 1.48786-1.48595 2.83148-3.11642 4.04297-4.90429 1.21149-1.78788 2.291-3.73205 3.25195-5.84766s1.80283-4.40194 2.53907-6.87109c0.73623-2.46916 1.36696-5.12218 1.90429-7.97071 0.53734-2.84852 0.98144-5.89278 1.34571-9.14648 0.36426-3.25371 0.64821-6.71569 0.86523-10.40039 0.43404-7.36941 0.59961-15.62671 0.59961-24.875v-59.251956c0-9.248329-0.16557-17.505574-0.59961-24.875-0.21702-3.684712-0.50097-7.146679-0.86523-10.40039-0.36427-3.253712-0.80837-6.297958-1.34571-9.146485-0.53733-2.848527-1.16806-5.501544-1.90429-7.970703-0.73624-2.469159-1.57812-4.755486-2.53907-6.871094-0.96095-2.115607-2.04046-4.059783-3.25195-5.847656-1.21149-1.787872-2.55511-3.418343-4.04297-4.904297-1.48786-1.485953-3.1201-2.827257-4.91016-4.037109-1.79005-1.209852-3.73739-2.288481-5.85546-3.248047s-4.407-1.800059-6.87891-2.535156-5.12694-1.365899-7.97852-1.902344c-2.85157-0.536445-5.89918-0.980141-9.15625-1.34375-3.25706-0.363609-6.72373-0.646692-10.41211-0.863281-7.37676-0.433179-15.64147-0.597656-24.89843-0.597656h-35.08203c-43.842285 21.739183-77.951176 68.511756-77.951176 116.26171 0-16.85491 24.044945 39.59326 37.169922 30.64258 14.603004-9.9583 19.297634-84.371091 38.050784-84.371091 2.15166-0.002608 4.30222 0.10091 6.44336 0.314453 0.02834 0.001625 0.05565 0.019531 0.08203 0.019531 62.22811 3.406904 100.93164 44.042367 100.93164 107.1211 0 18.5921-4.43353 36.10892-12.08399 51.75781z" style="fill:#dbdbdb"/>
  <path d="m5.0457644 288.97671c0.00659 7e-3 0.011473 0.0151 0.018087 0.0217 0.3936632 0.39316 0.8255275 0.74805 1.2991457 1.06816 0.4736182 0.3201 0.9888535 0.60549 1.5492592 0.85938 0.560406 0.25388 1.1660177 0.47626 1.8200441 0.67075 0.6540256 0.1945 1.3565026 0.3614 2.1109816 0.50333 0.75448 0.14194 1.560826 0.25933 2.422591 0.35554 0.861766 0.0962 1.778987 0.1711 2.754871 0.22841 1.951768 0.11461 4.138473 0.15813 6.587711 0.15813h19.941936c2.449237 0 4.635942-0.0435 6.58771-0.15813 0.975884-0.0573 1.893107-0.13221 2.75487-0.22841 0.861767-0.0962 1.668114-0.2136 2.422592-0.35554 0.75448-0.14193 1.456957-0.30883 2.110983-0.50333 0.654026-0.19449 1.259639-0.41687 1.820045-0.67075 0.560406-0.25389 1.07564-0.53928 1.549257-0.85938 0.47362-0.32011 0.905483-0.675 1.299146-1.06816 0.325435-0.32502 0.609127-0.69359 0.884185-1.0728 1.204291-3.36887 1.841098-6.92449 1.84123-10.52184 0-16.69516-13.092329-30.29255-29.564602-31.18569l5.16e-4 5.2e-4c8.289562 0.87358 12.505179 8.13751 12.505179 16.97002 6.99e-4 0.56931-0.02678 1.13829-0.0832 1.7048-4.02e-4 5e-3 -0.0054 0.0163-0.0062 0.0217-0.901089 16.46455-11.652901 26.70431-28.342455 26.70431-4.97043 0-9.6534861-1.19077-13.826546-3.25406 0.071267 0.13002 0.1434102 0.25964 0.2165241 0.38912-0.2712003 0.0718-0.4451905 0.14833-0.6738606 0.22221z" style="fill:#787878"/>
  <path transform="matrix(.26458333 0 0 .26458333 0 229.26666)" d="m21.849609 25.138672c-0.524532 0.460568-1.132616 0.844185-1.625 1.335937-1.48786 1.485954-2.831476 3.116425-4.042968 4.904297-1.211493 1.787873-2.291004 3.732049-3.251953 5.847656-0.96095 2.115608-1.802833 4.401935-2.539063 6.871094-0.7362301 2.469159-1.3669615 5.122176-1.9042969 7.970703-0.5373353 2.848527-0.9814382 5.892773-1.3457031 9.146485-0.3642649 3.253711-0.6482155 6.715678-0.8652344 10.40039-0.4340378 7.369426-0.5996094 15.626671-0.5996094 24.875v59.251956c1e-7 9.24829 0.1655716 17.50559 0.5996094 24.875 0.2170189 3.6847 0.5009695 7.14668 0.8652344 10.40039 0.3642649 3.2537 0.8083678 6.29796 1.3457031 9.14648 0.5373354 2.84853 1.1680668 5.50155 1.9042969 7.97071 0.73623 2.46915 1.578113 4.75548 2.539063 6.87109 0.960949 2.11561 2.04046 4.05978 3.251953 5.84766 1.211492 1.78787 2.555108 3.41834 4.042968 4.90429 1.487861 1.48596 3.120104 2.82726 4.910157 4.03711 1.790053 1.20986 3.737399 2.28848 5.855468 3.24805 2.11807 0.95957 4.406996 1.80005 6.878907 2.53515 2.47191 0.73511 5.126939 1.3659 7.978515 1.90235s5.899184 0.98014 9.15625 1.34375 6.723729 0.64669 10.41211 0.86328c7.37676 0.43319 15.641474 0.59766 24.898437 0.59766h21.101567c44.97999-14.98712 77.91816-56.22737 80.5957-105.61133-3.30174 31.33069-30.75597 47.26367-64.13867 47.26367-2.15164 0.00261-4.3022-0.10091-6.44336-0.31445-0.02835-0.00148-0.05761-0.01953-0.08399-0.01953-62.228142-3.40593-100.92968-44.04237-100.92968-107.1211 0-17.350813 1.231174-44.879763 1.433593-49.34375z" style="fill:#dbdbdb"/>
  <path transform="matrix(.26458333 0 0 .26458333 0 229.26666)" d="m35.824219 17.408203c-1.661229 0.561561-3.345589 1.10695-4.833985 1.78125-2.118069 0.959566-4.065415 2.038195-5.855468 3.248047-0.069154 0.046739-0.120769 0.109117-0.189454 0.15625 4.539593 0.408965 12.311742 0.271284 10.878907-5.185547z" style="fill:#ff5757"/>
  <path transform="matrix(.26458333 0 0 .26458333 0 229.26666)" d="m160.64453 11.947266h-70.330077c-9.256963 0-17.521677 0.164477-24.898437 0.597656-3.688381 0.216589-7.155044 0.499672-10.41211 0.863281s-6.304674 0.807305-9.15625 1.34375-5.506605 1.167247-7.978515 1.902344c-2.471911 0.735097-4.760837 1.57559-6.878907 2.535156-2.118069 0.959566-4.065415 2.038195-5.855468 3.248047s-3.422296 2.551156-4.910157 4.037109c-0.112045 0.111903-0.194276 0.255594-0.304687 0.369141-6.622734 15.009896-10.249405 31.184929-10.25 47.638672 0 65.281738 52.921383 118.20313 118.20313 118.20313v-0.00196c-12.54422 0 38.16152-9.36306 28.60351-15.56054-17.5735-11.39505-90.929685-25.84991-90.929685-48.91407-0.002638-2.15153-2.046719-4.30218-1.833984-6.44336 0.001542-0.01889 0.020414-0.06162 0.023437-0.08203 3.019399-55.16128 43.762582-100.20009 96.908202-109.73632z" style="fill:#787878"/>
  <path d="m50.891882 263.18858a17.058846 17.058846 0 0 1-17.058847 17.05885 17.058846 17.058846 0 0 1-17.058846-17.05885 17.058846 17.058846 0 0 1 17.058846-17.05885 17.058846 17.058846 0 0 1 17.058847 17.05885z" style="fill:#2f2f2f"/>
  <path transform="matrix(.13485389 0 0 .13485389 -4.9712548 261.01665)" d="M 361.9375,-212 C 507.2348,-212 528,-191.28677 528,-46.125 V 70.125 C 528,215.28618 507.2348,236 361.9375,236 H 214.0625 C 68.7652,236 48,215.28618 48,70.125 V -46.125 C 48,-191.28677 68.7652,-212 214.0625,-212 Z" clip-path="url(#clipPath1082-3-93)" style="fill:none;opacity:.6;stroke-linecap:round;stroke-linejoin:round;stroke-width:8;stroke:url(#linearGradient1108-7)"/>
 </g>
</svg>

<svg xmlns="http://www.w3.org/2000/svg" xmlns:xlink="http://www.w3.org/1999/xlink" width="256" height="256" version="1.1" viewBox="0 0 67.73 67.73">
 <defs>
  <filter style="color-interpolation-filters:sRGB" id="filter1132" width="1.046" height="1.05" x="-.02" y="-.03">
   <feGaussianBlur stdDeviation="2.32"/>
  </filter>
  <filter style="color-interpolation-filters:sRGB" id="filter4569" width="1.023" height="1.025" x="-.01" y="-.01">
   <feGaussianBlur stdDeviation="1.16"/>
  </filter>
  <linearGradient id="linearGradient1108-7" x1="296" x2="296" y1="-212" y2="236" gradientUnits="userSpaceOnUse" xlink:href="#linearGradient1013"/>
  <linearGradient id="linearGradient1013">
   <stop offset="0" style="stop-color:#ffffff"/>
   <stop style="stop-color:#ffffff;stop-opacity:0.09803922" offset=".125"/>
   <stop style="stop-color:#000000;stop-opacity:0.09803922" offset=".925"/>
   <stop offset="1" style="stop-color:#000000;stop-opacity:0.49803922"/>
  </linearGradient>
  <clipPath id="clipPath1082-3-93" clipPathUnits="userSpaceOnUse">
   <path d="M 361.9375,-212 C 507.2348,-212 528,-191.28677 528,-46.125 V 70.125 C 528,215.28618 507.2348,236 361.9375,236 H 214.0625 C 68.7652,236 48,215.28618 48,70.125 V -46.125 C 48,-191.28677 68.7652,-212 214.0625,-212 Z" style="fill:#8c59d9"/>
  </clipPath>
 </defs>
 <g transform="translate(0,-229.26666)">
  <path d="m 43.837425,232.42763 c 19.593907,0 22.394175,2.79326 22.394175,22.36889 v 15.67677 c 0,19.57555 -2.800268,22.36888 -22.394175,22.36888 h -19.94152 c -19.5939058,0 -22.3941739,-2.79333 -22.3941739,-22.36888 v -15.67677 c 0,-19.57563 2.8002681,-22.36889 22.3941739,-22.36889 z" style="opacity:0.115;fill:none;stroke:#000000;stroke-width:1.0788312;stroke-linecap:round;stroke-linejoin:round"/>
  <path d="m 188.96876,43.999995 c 72.64865,0 83.03125,10.356615 83.03125,82.937505 v 58.125 c 0,72.58059 -10.3826,82.9375 -83.03125,82.9375 h -73.9375 C 42.382606,268 32.000006,257.64309 32.000006,185.0625 v -58.125 c 0,-72.58089 10.3826,-82.937505 83.031254,-82.937505 z" transform="matrix(0.26970778,0,0,0.26970778,-7.1289177,220.56049)" style="opacity:0.1;filter:url(#filter4569)"/>
  <path style="opacity:0.2;filter:url(#filter1132)" d="m 188.96876,45.999995 c 72.64865,0 83.03125,10.356615 83.03125,82.937505 v 58.125 c 0,72.58059 -10.3826,82.9375 -83.03125,82.9375 h -73.9375 C 42.382606,270 32.000006,259.64309 32.000006,187.0625 v -58.125 c 0,-72.58089 10.3826,-82.937505 83.031254,-82.937505 z" transform="matrix(0.26970778,0,0,0.26970778,-7.1289177,220.56049)"/>
  <path style="opacity:0.25;fill:#ffffff" d="m 0.9525,262.56205 v 7.96544 c 0,19.89285 2.846163,22.73147 22.761203,22.73147 h 20.268349 c 19.91504,0 22.761202,-2.83862 22.761202,-22.73147 v -7.96544 z"/>
  <path style="opacity:0.25;fill:#ffffff" d="m 34.339496,293.25889 h 9.642769 c 2.489379,0 4.711922,-0.0442 6.695678,-0.16069 0.991878,-0.0582 1.924134,-0.13436 2.800022,-0.23212 0.87589,-0.0978 1.695452,-0.21706 2.462296,-0.36129 0.766845,-0.14424 1.480835,-0.31385 2.145581,-0.51149 0.664745,-0.19765 1.280283,-0.42364 1.849874,-0.68163 0.569591,-0.25801 1.093269,-0.54801 1.574648,-0.87331 0.481383,-0.3253 0.920325,-0.68593 1.32044,-1.08546 0.400114,-0.39954 0.76144,-0.83793 1.087233,-1.31864 0.325794,-0.48071 0.616096,-1.00344 0.874514,-1.57227 0.258418,-0.56883 0.484817,-1.18356 0.682806,-1.84745 0.197987,-0.66388 0.367602,-1.3772 0.512101,-2.14309 0.144501,-0.7659 0.263929,-1.58441 0.361887,-2.45924 0.09796,-0.87483 0.174317,-1.80566 0.232678,-2.79637 0.116723,-1.98143 0.161248,-4.20159 0.161248,-6.68819 v -15.9312 c 0,-2.48661 -0.04453,-4.70675 -0.161248,-6.68819 -0.05836,-0.99071 -0.13472,-1.92154 -0.232678,-2.79637 -0.09796,-0.87484 -0.217386,-1.69334 -0.361887,-2.45924 -0.144499,-0.76589 -0.314114,-1.4792 -0.512101,-2.14309 -0.197989,-0.66389 -0.424388,-1.27862 -0.682806,-1.84745 -0.258418,-0.56882 -0.54872,-1.09156 -0.874514,-1.57227 -0.325793,-0.48071 -0.687119,-0.9191 -1.087233,-1.31863 -0.400115,-0.39954 -0.839057,-0.76017 -1.32044,-1.08547 -0.481379,-0.3253 -1.005057,-0.6153 -1.574648,-0.87331 -0.569591,-0.25799 -1.185129,-0.48398 -1.849874,-0.68163 -0.664746,-0.19764 -1.378736,-0.36725 -2.145581,-0.51149 -0.766844,-0.14423 -1.586406,-0.26353 -2.462296,-0.36129 -0.875888,-0.0978 -1.808144,-0.17387 -2.800022,-0.23211 -1.983756,-0.11647 -4.206299,-0.1607 -6.695678,-0.1607 h -9.642769 z"/>
  <path style="fill:#dbdbdb" d="M 223.24609 233.69336 C 223.81181 233.46271 224.46668 233.28901 225.00977 233.04297 C 227.12784 232.0834 229.07518 231.00478 230.86523 229.79492 C 232.65529 228.58507 234.28753 227.24377 235.77539 225.75781 C 237.26325 224.27186 238.60687 222.64139 239.81836 220.85352 C 241.02985 219.06564 242.10936 217.12147 243.07031 215.00586 C 244.03126 212.89025 244.87314 210.60392 245.60938 208.13477 C 246.34561 205.66561 246.97634 203.01259 247.51367 200.16406 C 248.05101 197.31554 248.49511 194.27128 248.85938 191.01758 C 249.22364 187.76387 249.50759 184.30189 249.72461 180.61719 C 250.15865 173.24778 250.32422 164.99048 250.32422 155.74219 L 250.32422 96.490234 C 250.32422 87.241905 250.15865 78.98466 249.72461 71.615234 C 249.50759 67.930522 249.22364 64.468555 248.85938 61.214844 C 248.49511 57.961132 248.05101 54.916886 247.51367 52.068359 C 246.97634 49.219832 246.34561 46.566815 245.60938 44.097656 C 244.87314 41.628497 244.03126 39.34217 243.07031 37.226562 C 242.10936 35.110955 241.02985 33.166779 239.81836 31.378906 C 238.60687 29.591034 237.26325 27.960563 235.77539 26.474609 C 234.28753 24.988656 232.65529 23.647352 230.86523 22.4375 C 229.07518 21.227648 227.12784 20.149019 225.00977 19.189453 C 222.8917 18.229887 220.60277 17.389394 218.13086 16.654297 C 215.65895 15.9192 213.00392 15.288398 210.15234 14.751953 C 207.30077 14.215508 204.25316 13.771812 200.99609 13.408203 C 197.73903 13.044594 194.27236 12.761511 190.58398 12.544922 C 183.20722 12.111743 174.94251 11.947266 165.68555 11.947266 L 130.60352 11.947266 C 86.761235 33.686449 52.652344 80.459022 52.652344 128.20898 C 52.652344 111.35407 76.697289 167.80224 89.822266 158.85156 C 104.42527 148.89326 109.1199 74.480469 127.87305 74.480469 C 130.02471 74.477861 132.17527 74.581379 134.31641 74.794922 C 134.34475 74.796547 134.37206 74.814453 134.39844 74.814453 C 196.62655 78.221357 235.33008 118.85682 235.33008 181.93555 C 235.33008 200.52765 230.89655 218.04447 223.24609 233.69336 z" transform="matrix(0.26458333,0,0,0.26458333,0,229.26666)"/>
  <path style="fill:#787878" d="m 5.0457644,288.97671 c 0.00659,0.007 0.011473,0.0151 0.018087,0.0217 0.3936632,0.39316 0.8255275,0.74805 1.2991457,1.06816 0.4736182,0.3201 0.9888535,0.60549 1.5492592,0.85938 0.560406,0.25388 1.1660177,0.47626 1.8200441,0.67075 0.6540256,0.1945 1.3565026,0.3614 2.1109816,0.50333 0.75448,0.14194 1.560826,0.25933 2.422591,0.35554 0.861766,0.0962 1.778987,0.1711 2.754871,0.22841 1.951768,0.11461 4.138473,0.15813 6.587711,0.15813 h 19.941936 c 2.449237,0 4.635942,-0.0435 6.58771,-0.15813 0.975884,-0.0573 1.893107,-0.13221 2.75487,-0.22841 0.861767,-0.0962 1.668114,-0.2136 2.422592,-0.35554 0.75448,-0.14193 1.456957,-0.30883 2.110983,-0.50333 0.654026,-0.19449 1.259639,-0.41687 1.820045,-0.67075 0.560406,-0.25389 1.07564,-0.53928 1.549257,-0.85938 0.47362,-0.32011 0.905483,-0.675 1.299146,-1.06816 0.325435,-0.32502 0.609127,-0.69359 0.884185,-1.0728 1.204291,-3.36887 1.841098,-6.92449 1.84123,-10.52184 0,-16.69516 -13.092329,-30.29255 -29.564602,-31.18569 l 5.16e-4,5.2e-4 c 8.289562,0.87358 12.505179,8.13751 12.505179,16.97002 6.99e-4,0.56931 -0.02678,1.13829 -0.0832,1.7048 -4.02e-4,0.005 -0.0054,0.0163 -0.0062,0.0217 -0.901089,16.46455 -11.652901,26.70431 -28.342455,26.70431 -4.97043,0 -9.6534861,-1.19077 -13.8265457,-3.25406 0.071267,0.13002 0.1434102,0.25964 0.2165241,0.38912 -0.2712003,0.0718 -0.4451905,0.14833 -0.6738606,0.22221 z"/>
  <path style="fill:#dbdbdb" d="M 21.849609 25.138672 C 21.325077 25.59924 20.716993 25.982857 20.224609 26.474609 C 18.736749 27.960563 17.393133 29.591034 16.181641 31.378906 C 14.970148 33.166779 13.890637 35.110955 12.929688 37.226562 C 11.968738 39.34217 11.126855 41.628497 10.390625 44.097656 C 9.6543949 46.566815 9.0236635 49.219832 8.4863281 52.068359 C 7.9489928 54.916886 7.5048899 57.961132 7.140625 61.214844 C 6.7763601 64.468555 6.4924095 67.930522 6.2753906 71.615234 C 5.8413528 78.98466 5.6757812 87.241905 5.6757812 96.490234 L 5.6757812 155.74219 C 5.6757813 164.99048 5.8413528 173.24778 6.2753906 180.61719 C 6.4924095 184.30189 6.7763601 187.76387 7.140625 191.01758 C 7.5048899 194.27128 7.9489928 197.31554 8.4863281 200.16406 C 9.0236635 203.01259 9.6543949 205.66561 10.390625 208.13477 C 11.126855 210.60392 11.968738 212.89025 12.929688 215.00586 C 13.890637 217.12147 14.970148 219.06564 16.181641 220.85352 C 17.393133 222.64139 18.736749 224.27186 20.224609 225.75781 C 21.71247 227.24377 23.344713 228.58507 25.134766 229.79492 C 26.924819 231.00478 28.872165 232.0834 30.990234 233.04297 C 33.108304 234.00254 35.39723 234.84302 37.869141 235.57812 C 40.341051 236.31323 42.99608 236.94402 45.847656 237.48047 C 48.699232 238.01692 51.74684 238.46061 55.003906 238.82422 C 58.260972 239.18783 61.727635 239.47091 65.416016 239.6875 C 72.792776 240.12069 81.05749 240.28516 90.314453 240.28516 L 111.41602 240.28516 C 156.39601 225.29804 189.33418 184.05779 192.01172 134.67383 C 188.70998 166.00452 161.25575 181.9375 127.87305 181.9375 C 125.72141 181.94011 123.57085 181.83659 121.42969 181.62305 C 121.40134 181.62157 121.37208 181.60352 121.3457 181.60352 C 59.117558 178.19759 20.416016 137.56115 20.416016 74.482422 C 20.416016 57.131609 21.64719 29.602659 21.849609 25.138672 z" transform="matrix(0.26458333,0,0,0.26458333,0,229.26666)"/>
  <path style="fill:#ff5757" d="M 35.824219 17.408203 C 34.16299 17.969764 32.47863 18.515153 30.990234 19.189453 C 28.872165 20.149019 26.924819 21.227648 25.134766 22.4375 C 25.065612 22.484239 25.013997 22.546617 24.945312 22.59375 C 29.484905 23.002715 37.257054 22.865034 35.824219 17.408203 z" transform="matrix(0.26458333,0,0,0.26458333,0,229.26666)"/>
  <path style="fill:#787878" d="M 160.64453 11.947266 L 90.314453 11.947266 C 81.05749 11.947266 72.792776 12.111743 65.416016 12.544922 C 61.727635 12.761511 58.260972 13.044594 55.003906 13.408203 C 51.74684 13.771812 48.699232 14.215508 45.847656 14.751953 C 42.99608 15.288398 40.341051 15.9192 37.869141 16.654297 C 35.39723 17.389394 33.108304 18.229887 30.990234 19.189453 C 28.872165 20.149019 26.924819 21.227648 25.134766 22.4375 C 23.344713 23.647352 21.71247 24.988656 20.224609 26.474609 C 20.112564 26.586512 20.030333 26.730203 19.919922 26.84375 C 13.297188 41.853646 9.6705174 58.028679 9.6699219 74.482422 C 9.6699219 139.76416 62.591305 192.68555 127.87305 192.68555 L 127.87305 192.68359 C 115.32883 192.68359 166.03457 183.32053 156.47656 177.12305 C 138.90306 165.728 65.546875 151.27314 65.546875 128.20898 C 65.544237 126.05745 63.500156 123.9068 63.712891 121.76562 C 63.714433 121.74673 63.733305 121.704 63.736328 121.68359 C 66.755727 66.52231 107.49891 21.483501 160.64453 11.947266 z" transform="matrix(0.26458333,0,0,0.26458333,0,229.26666)"/>
  <path style="fill:#2f2f2f" d="M 50.891882,263.18858 A 17.058846,17.058846 0 0 1 33.833035,280.24743 17.058846,17.058846 0 0 1 16.774189,263.18858 17.058846,17.058846 0 0 1 33.833035,246.12973 17.058846,17.058846 0 0 1 50.891882,263.18858 Z"/>
  <path d="M 361.9375,-212 C 507.2348,-212 528,-191.28677 528,-46.125 V 70.125 C 528,215.28618 507.2348,236 361.9375,236 H 214.0625 C 68.7652,236 48,215.28618 48,70.125 V -46.125 C 48,-191.28677 68.7652,-212 214.0625,-212 Z" clip-path="url(#clipPath1082-3-93)" transform="matrix(0.13485389,0,0,0.13485389,-4.9712548,261.01665)" style="opacity:0.6;fill:none;stroke:url(#linearGradient1108-7);stroke-width:8;stroke-linecap:round;stroke-linejoin:round"/>
 </g>
</svg>
